X: 118
T:Donegal Jig
R:jig
Z:added by Alf 
M:6/8
L:1/8
Q:3/8=120
K:G
B2 c|d^cd b2 f| agf ged|Bcd edB| c3 c2 B|
|[1 ABA DFA| fgf f2 e|d^cd edc| B3 B2 c:|
|[2 ABA f2 e| d^cd g2 e|ded cBA| G3 G2 E|]
GBd edB| d3 d2 D|GBd edB| c3 c2 B|
|[1 ABA DFA| fgf f2 e|d^cd edc| B3 B2 D:|
|[2 ABA f2 e| d^cd g2 e|ded cBA| G3 G2|]
